X: 8299
T: Cornhill, The
R: reel
M: 4/4
K: Dmixolydian
D2 (3FED ADED|C2 EG cGEC|D2 (3FED ADED|EAAG EDCE|
D3B AFDB,|C2 EG cGEC|D2 (3FED ADED|EAAG EDDB||
Add^c d3=c|AccB cAGc|Add^c ~d3d|eaag eddc|
Add^c ded=c|AccB c2 cA|GAcd eged|cAGE ED D2||
afdf a3 f|gece g2 fg|afdf a3g|eaag eddf|
a~d3 a3 f|g~c3 g3A|GAcd eged|cAGE ED D2||

